X:1
T:Tralee Gaol
L:1/8
Q:1/4=110
M:2/4
K:G
 A z A z | A z A z | A z A z | E z E z |
 A z A z |A z A z | G z E z | A z A z ::
!<(! A3 z | B3 z | c3 z | d3 z!<)! |
 A3 z | B3 z | =F2 E2 |A3 z ::
